packages/icons/src/mobile.svg

<svg width="15" height="15" viewBox="0 0 15 15" fill="none" xmlns="http://www.w3.org/2000/svg">
  <path
    fill-rule="evenodd"
    clip-rule="evenodd"
    d="M4 2.5C4 2.22386 4.22386 2 4.5 2H10.5C10.7761 2 11 2.22386 11 2.5V12.5C11 12.7761 10.7761 13 10.5 13H4.5C4.22386 13 4 12.7761 4 12.5V2.5ZM4.5 1C3.67157 1 3 1.67157 3 2.5V12.5C3 13.3284 3.67157 14 4.5 14H10.5C11.3284 14 12 13.3284 12 12.5V2.5C12 1.67157 11.3284 1 10.5 1H4.5ZM6 11.65C5.8067 11.65 5.65 11.8067 5.65 12C5.65 12.1933 5.8067 12.35 6 12.35H9C9.1933 12.35 9.35 12.1933 9.35 12C9.35 11.8067 9.1933 11.65 9 11.65H6Z"
    fill="currentColor"
  />
</svg>

<svg xmlns="http://www.w3.org/2000/svg" width="15" height="15" fill="none"><path fill="currentColor" fill-rule="evenodd" d="M4 2.5a.5.5 0 0 1 .5-.5h6a.5.5 0 0 1 .5.5v10a.5.5 0 0 1-.5.5h-6a.5.5 0 0 1-.5-.5zM4.5 1A1.5 1.5 0 0 0 3 2.5v10A1.5 1.5 0 0 0 4.5 14h6a1.5 1.5 0 0 0 1.5-1.5v-10A1.5 1.5 0 0 0 10.5 1zM6 11.65a.35.35 0 1 0 0 .7h3a.35.35 0 1 0 0-.7z" clip-rule="evenodd"/></svg>
